app/assets/images/heroicons/micro/adjustments-horizontal.svg

<svg width="16" height="16" viewBox="0 0 16 16" fill="none" xmlns="http://www.w3.org/2000/svg">
<path d="M6.5 2.25C6.5 1.83579 6.16421 1.5 5.75 1.5C5.33579 1.5 5 1.83579 5 2.25V5.25C5 5.66421 5.33579 6 5.75 6C6.16421 6 6.5 5.66421 6.5 5.25V4.5H13.25C13.6642 4.5 14 4.16421 14 3.75C14 3.33579 13.6642 3 13.25 3H6.5V2.25Z" fill="#0F172A"/>
<path d="M11 6.5C11 6.08579 10.6642 5.75 10.25 5.75C9.83579 5.75 9.5 6.08579 9.5 6.5V9.5C9.5 9.91421 9.83579 10.25 10.25 10.25C10.6642 10.25 11 9.91421 11 9.5V8.75H13.25C13.6642 8.75 14 8.41421 14 8C14 7.58579 13.6642 7.25 13.25 7.25H11V6.5Z" fill="#0F172A"/>
<path d="M5.75 10C6.16421 10 6.5 10.3358 6.5 10.75V11.5H13.25C13.6642 11.5 14 11.8358 14 12.25C14 12.6642 13.6642 13 13.25 13H6.5V13.75C6.5 14.1642 6.16421 14.5 5.75 14.5C5.33579 14.5 5 14.1642 5 13.75V10.75C5 10.3358 5.33579 10 5.75 10Z" fill="#0F172A"/>
<path d="M2.75 7.25H8.5V8.75H2.75C2.33579 8.75 2 8.41421 2 8C2 7.58579 2.33579 7.25 2.75 7.25Z" fill="#0F172A"/>
<path d="M4 3H2.75C2.33579 3 2 3.33579 2 3.75C2 4.16421 2.33579 4.5 2.75 4.5H4V3Z" fill="#0F172A"/>
<path d="M2.75 11.5H4V13H2.75C2.33579 13 2 12.6642 2 12.25C2 11.8358 2.33579 11.5 2.75 11.5Z" fill="#0F172A"/>
</svg>

<svg xmlns="http://www.w3.org/2000/svg" viewBox="0 0 16 16" fill="currentColor" aria-hidden="true" data-slot="icon">
  <path d="M6.5 2.25a.75.75 0 0 0-1.5 0v3a.75.75 0 0 0 1.5 0V4.5h6.75a.75.75 0 0 0 0-1.5H6.5v-.75ZM11 6.5a.75.75 0 0 0-1.5 0v3a.75.75 0 0 0 1.5 0v-.75h2.25a.75.75 0 0 0 0-1.5H11V6.5ZM5.75 10a.75.75 0 0 1 .75.75v.75h6.75a.75.75 0 0 1 0 1.5H6.5v.75a.75.75 0 0 1-1.5 0v-3a.75.75 0 0 1 .75-.75ZM2.75 7.25H8.5v1.5H2.75a.75.75 0 0 1 0-1.5ZM4 3H2.75a.75.75 0 0 0 0 1.5H4V3ZM2.75 11.5H4V13H2.75a.75.75 0 0 1 0-1.5Z"/>
</svg>
